X: 10053
T: Dick Sherlock's
R: reel
M: 4/4
K: Dmajor
dB|:AF~F2 BdAF|DEFA BABd|eB~B2 egfe|dfed BcdB|
AF~F2 BdAF|DEFA BABd|g2fg efdB|1 AFEF D2dB:|2 AFGE D2FA||
|:dcde fefg|afbf afdf|eB~B2 gB~B2|fedf efdB|
AF~F2 ABdf|a2bf afdf|g2fg efdB|1 AFEF D2FA:|2 AFGE D2dB||

